X: 6376
T: Castle Ceili's
R: reel
M: 4/4
K: Dmajor
D2FA B/c/d AF|DFAF GE~E2|D2FA ~B3c|dfec dBAF|
D2FA B/c/d AF|DFAF GE~E2|D2FA ~B3c|dfec d4:|
|:d2fd Adfd|d2fd BAFA|d2fd Adfa|afed BAFA|
d2fd Adfd|defd ~e3f|~g3e dBAA|1 B/c/d ec dBAB:|2 B/c/d ec dBAF||

